X:162
T: Englische Schferin (2-64) S. 196
N: P0937
O: Lothringen
S: PINCK, Louis: Verklingende Weisen, Bd 2, Metz 1928]
R: vergebliche Werbung]
M: 3/4
L: 1/16
K: F
A3B | c4A4c4 | B2A2G4B4 | A4F4F2A2 | G8
c4 | F4F4G4 | A4A4A2B2 | c4A4G2G2 | F8

